svg/furkot/icomoon/file.svg

<svg viewBox="0 0 512 512" xmlns="http://www.w3.org/2000/svg"><path d="m458.904 114.536c-11.104-15.144-26.584-32.848-43.592-49.848s-34.704-32.48-49.848-43.592c-25.784-18.912-38.296-21.096-45.464-21.096h-248c-22.056 0-40 17.944-40 40v432c0 22.056 17.944 40 40 40h368c22.056 0 40-17.944 40-40v-312c0-7.168-2.184-19.672-21.096-45.464zm-66.216-27.224c15.352 15.352 27.4 29.2 36.288 40.688h-76.976v-76.976c11.496 8.888 25.336 20.936 40.688 36.288zm55.312 384.688c0 4.336-3.664 8-8 8h-368c-4.336 0-8-3.664-8-8v-432c0-4.336 3.664-8 8-8h248v112c0 8.84 7.16 16 16 16h112z"/><path d="m368 416h-224c-8.84 0-16-7.16-16-16s7.16-16 16-16h224c8.84 0 16 7.16 16 16s-7.16 16-16 16zm0-64h-224c-8.84 0-16-7.16-16-16s7.16-16 16-16h224c8.84 0 16 7.16 16 16s-7.16 16-16 16zm0-64h-224c-8.84 0-16-7.16-16-16s7.16-16 16-16h224c8.84 0 16 7.16 16 16s-7.16 16-16 16z"/></svg>

<svg xmlns="http://www.w3.org/2000/svg" viewBox="0 0 512 512"><path d="M458.904 114.536C447.8 99.392 432.32 81.688 415.312 64.688S380.608 32.208 365.464 21.096C339.68 2.184 327.168 0 320 0H72C49.944 0 32 17.944 32 40V472C32 494.056 49.944 512 72 512H440C462.056 512 480 494.056 480 472V160C480 152.832 477.816 140.328 458.904 114.536ZM392.688 87.312C408.04 102.664 420.088 116.512 428.976 128H352V51.024C363.496 59.912 377.336 71.96 392.688 87.312ZM448 472C448 476.336 444.336 480 440 480H72C67.664 480 64 476.336 64 472V40C64 35.664 67.664 32 72 32 72 32 319.976 32 320 32V144C320 152.84 327.16 160 336 160H448V472Z"/><path d="M368 416H144C135.16 416 128 408.84 128 400S135.16 384 144 384H368C376.84 384 384 391.16 384 400S376.84 416 368 416ZM368 352H144C135.16 352 128 344.84 128 336S135.16 320 144 320H368C376.84 320 384 327.16 384 336S376.84 352 368 352ZM368 288H144C135.16 288 128 280.84 128 272S135.16 256 144 256H368C376.84 256 384 263.16 384 272S376.84 288 368 288Z"/></svg>
